apps/www/public/images/logos/publicity/gumloop.svg

<svg width="188" height="60" viewBox="0 0 188 60" fill="none" xmlns="http://www.w3.org/2000/svg">
<path d="M66.8587 37.3039L67.1813 41.6568C66.4155 41.8987 65.4884 42.0599 64.2795 42.0599C61.7805 42.0599 60.2083 40.891 59.6441 38.6742C58.5561 40.6895 56.6617 42.0599 53.7998 42.0599C49.3261 42.0599 46.8271 38.8354 46.8271 34.8049V22.1088H52.3892V33.5151C52.3892 35.8125 53.5582 37.2635 55.5733 37.2635C57.8303 37.2635 59.4022 35.611 59.4022 33.1524V22.1088H64.9243V36.2962C64.9243 37.062 65.3271 37.5054 65.8917 37.5054C66.2139 37.5054 66.4155 37.4651 66.8587 37.3039ZM93.455 21.9072C97.8484 21.9072 100.186 25.0107 100.186 29.404V41.8583H94.624V30.6132C94.624 28.1142 93.3743 26.7036 91.3593 26.7036C89.1422 26.7036 87.6106 28.3561 87.6106 30.8147V41.8583H82.0889V30.6132C82.0889 28.1546 80.8796 26.7036 78.8242 26.7036C76.6075 26.7036 75.0756 28.3561 75.0756 30.8147V41.8583H69.5538V22.1088H74.8743L75.0356 24.9704C76.1639 23.1567 78.0987 21.9072 80.8392 21.9072C84.0237 21.9072 86.1194 23.5597 87.0465 26.0184C88.0542 23.6404 90.1902 21.9072 93.455 21.9072ZM111.026 37.3039L111.349 41.6568C110.583 41.8987 109.656 42.0599 108.447 42.0599C105.222 42.0599 103.57 40.1252 103.57 36.6186V13.2416H109.092V36.2962C109.092 37.062 109.494 37.5054 110.059 37.5054C110.381 37.5054 110.583 37.4651 111.026 37.3039ZM122.65 21.9072C128.776 21.9072 132.807 25.978 132.807 31.9029C132.807 37.8278 128.776 42.0599 122.65 42.0599C116.604 42.0599 112.533 38.0293 112.533 32.1044C112.533 26.1393 116.604 21.9072 122.65 21.9072ZM122.65 26.4617C119.909 26.4617 118.096 28.6785 118.096 32.0238C118.096 35.2886 119.909 37.5054 122.65 37.5054C125.471 37.5054 127.204 35.2886 127.204 32.0238C127.204 28.6785 125.471 26.4617 122.65 26.4617ZM144.545 21.9072C150.672 21.9072 154.702 25.978 154.702 31.9029C154.702 37.8278 150.672 42.0599 144.545 42.0599C138.5 42.0599 134.429 38.0293 134.429 32.1044C134.429 26.1393 138.5 21.9072 144.545 21.9072ZM144.545 26.4617C141.805 26.4617 139.991 28.6785 139.991 32.0238C139.991 35.2886 141.805 37.5054 144.545 37.5054C147.367 37.5054 149.1 35.2886 149.1 32.0238C149.1 28.6785 147.367 26.4617 144.545 26.4617ZM169.021 21.9072C174.018 21.9072 177.605 25.4138 177.605 31.6611C177.605 37.7875 174.179 42.0599 168.819 42.0599C165.917 42.0599 163.982 40.8507 162.894 39.037V50H157.372V22.0684H162.733L162.854 24.9704C163.982 23.197 166.038 21.9072 169.021 21.9072ZM167.569 37.4247C170.189 37.4247 172.003 35.2483 172.003 31.9029C172.003 28.6382 170.31 26.5424 167.61 26.5424C164.547 26.5424 162.894 29.1219 162.894 31.3387V32.5881C162.894 34.9661 164.627 37.4247 167.569 37.4247Z" fill="#7E7E7E"/>
<path d="M21.3641 11.0381C22.118 10.7172 23.5315 10.3303 24.5586 10.1699C25.3313 10.0378 26.1888 10.0095 28.4692 10H39.465H45.4957C45.0641 15.1885 40.3391 15.2222 39.465 15.3132C38.591 15.4042 31.8145 15.3132 31.8145 15.3132C25.7648 15.3887 24.9732 15.4831 23.1357 16.257C20.5255 17.3611 18.556 19.2297 17.3122 21.7778C16.5677 23.2972 16.3981 24.005 16.3039 26.1001C16.1626 28.8558 17.0201 31.2623 18.9518 33.6028C19.9507 34.8108 21.9861 36.198 23.5692 36.7454C24.8978 37.2078 25.2465 37.2645 26.8202 37.3211C28.1771 37.3683 28.4975 37.3494 29.3456 37.1701C30.4293 36.9436 31.4187 36.5755 32.5212 35.9904C34.4529 34.9617 36.1208 33.1687 37.1008 31.0736C38.0244 29.0917 38.3636 26.3549 37.7982 25.4584C37.6757 25.2602 37.4495 25.0148 37.2987 24.911C36.6768 24.458 36.6014 24.458 31.4752 24.5052L26.66 24.5618L26.2642 24.826C26.0475 24.9676 25.7459 25.2885 25.5858 25.5244C25.2276 26.1001 25.2276 26.572 25.5763 27.2609C25.7836 27.6855 25.9156 27.8177 26.3396 28.0253L26.8579 28.2896H30.5612H34.2645V28.516C34.2645 28.7709 33.7933 29.8373 33.4258 30.413C31.9464 32.744 29.1289 34.0935 26.4338 33.7632C24.6151 33.5462 23.164 32.8478 21.939 31.6021C20.7894 30.4413 20.1203 29.1295 19.8847 27.5818C19.4795 24.9676 20.4972 22.2874 22.4761 20.7114C23.4561 19.9469 24.1346 19.5883 25.2276 19.2675L26.1134 19.0032L31.2962 19.0315C34.3116 19.041 36.7334 19.0882 37.0914 19.1542C37.883 19.2769 38.9384 19.5883 39.353 19.8243C40.2011 20.2961 40.5498 20.5132 40.7665 20.7114C40.8984 20.8341 41.0209 20.9285 41.0586 20.9285C41.1623 20.9285 41.7748 21.5419 41.9915 21.8722C42.114 22.0515 42.2459 22.2214 42.2742 22.2497C42.5569 22.5045 43.3107 24.3919 43.4709 25.2224C43.7254 26.5814 43.4521 29.6297 42.9244 31.2812C41.8879 34.5465 39.7111 37.6797 37.1857 39.5577C34.142 41.8132 30.8721 42.9172 27.2442 42.9172C24.4644 42.9172 22.1745 42.3888 19.847 41.2187C15.8516 39.2086 12.9021 35.8111 11.5735 31.687C11.1306 30.2997 11.0364 29.9034 10.8479 28.5727C10.3673 25.128 11.1212 21.3437 12.9116 18.286C14.3345 15.8417 16.4358 13.7183 18.8576 12.2838C19.8093 11.7176 19.9978 11.6233 20.6009 11.359C20.7799 11.2835 21.1286 11.1419 21.3641 11.0381Z" fill="#7E7E7E"/>
</svg>

<svg xmlns="http://www.w3.org/2000/svg" width="188" height="60" fill="none" viewBox="0 0 188 60"><path fill="#7e7e7e" d="m66.859 37.304.322 4.353c-.766.242-1.693.403-2.901.403-2.5 0-4.072-1.169-4.636-3.386-1.088 2.016-2.982 3.386-5.844 3.386-4.474 0-6.973-3.225-6.973-7.255V22.109h5.562v11.406c0 2.297 1.17 3.749 3.184 3.749 2.257 0 3.83-1.653 3.83-4.112V22.11h5.521v14.187c0 .766.403 1.21.968 1.21.322 0 .523-.04.967-.202m26.596-15.397c4.393 0 6.731 3.104 6.731 7.497v12.454h-5.562V30.613c0-2.499-1.25-3.91-3.265-3.91-2.217 0-3.748 1.653-3.748 4.112v11.043h-5.522V30.613c0-2.458-1.21-3.91-3.265-3.91-2.216 0-3.748 1.653-3.748 4.112v11.043h-5.522v-19.75h5.32l.162 2.862c1.128-1.813 3.063-3.063 5.803-3.063 3.185 0 5.28 1.653 6.207 4.111 1.008-2.378 3.144-4.11 6.409-4.11m17.571 15.397.323 4.353c-.766.242-1.693.403-2.902.403-3.225 0-4.877-1.935-4.877-5.441V13.242h5.522v23.054c0 .766.402 1.21.967 1.21.322 0 .524-.04.967-.202m11.624-15.397c6.126 0 10.157 4.071 10.157 9.996S128.776 42.06 122.65 42.06c-6.046 0-10.117-4.03-10.117-9.956 0-5.965 4.071-10.197 10.117-10.197m0 4.555c-2.741 0-4.554 2.217-4.554 5.562 0 3.265 1.813 5.481 4.554 5.481 2.821 0 4.554-2.216 4.554-5.481 0-3.346-1.733-5.562-4.554-5.562m21.895-4.555c6.127 0 10.157 4.071 10.157 9.996s-4.03 10.157-10.157 10.157c-6.045 0-10.116-4.03-10.116-9.956 0-5.965 4.071-10.197 10.116-10.197m0 4.555c-2.74 0-4.554 2.217-4.554 5.562 0 3.265 1.814 5.481 4.554 5.481 2.822 0 4.555-2.216 4.555-5.481 0-3.346-1.733-5.562-4.555-5.562m24.476-4.555c4.997 0 8.584 3.507 8.584 9.754 0 6.127-3.426 10.399-8.786 10.399-2.902 0-4.837-1.21-5.925-3.023V50h-5.522V22.068h5.361l.121 2.902c1.128-1.773 3.184-3.063 6.167-3.063m-1.452 15.518c2.62 0 4.434-2.177 4.434-5.522 0-3.265-1.693-5.36-4.393-5.36-3.063 0-4.716 2.579-4.716 4.796v1.25c0 2.377 1.733 4.836 4.675 4.836M21.364 11.038c.754-.32 2.168-.708 3.195-.868.772-.132 1.63-.16 3.91-.17h17.026c-.43 5.188-5.156 5.222-6.03 5.313s-7.65 0-7.65 0c-6.05.076-6.842.17-8.68.944-2.61 1.104-4.579 2.973-5.823 5.52-.744 1.52-.914 2.228-1.008 4.323-.141 2.756.716 5.162 2.648 7.503.999 1.208 3.034 2.595 4.617 3.142 1.329.463 1.678.52 3.251.576 1.357.047 1.677.028 2.526-.15 1.083-.227 2.073-.596 3.175-1.18 1.932-1.03 3.6-2.822 4.58-4.917.923-1.982 1.263-4.72.697-5.616a2.2 2.2 0 0 0-.5-.547c-.621-.453-.697-.453-5.823-.406l-4.815.057-.396.264c-.216.142-.518.462-.678.698-.358.576-.358 1.048-.01 1.737.208.425.34.557.764.764l.518.265h7.406v.226c0 .255-.47 1.321-.838 1.897-1.48 2.331-4.297 3.68-6.992 3.35-1.819-.217-3.27-.915-4.495-2.16-1.15-1.162-1.819-2.474-2.054-4.021-.405-2.614.612-5.295 2.591-6.87.98-.765 1.659-1.124 2.752-1.445l.885-.264 5.183.029c3.016.009 5.437.056 5.795.122.792.123 1.847.434 2.262.67.848.472 1.197.69 1.413.887.132.123.255.218.293.218.103 0 .716.613.933.943.122.18.254.35.282.378.283.255 1.037 2.142 1.197 2.972.254 1.36-.019 4.408-.547 6.06-1.036 3.265-3.213 6.398-5.738 8.276-3.044 2.255-6.314 3.36-9.942 3.36-2.78 0-5.07-.53-7.397-1.7-3.995-2.01-6.945-5.407-8.274-9.531-.442-1.387-.537-1.784-.725-3.114-.48-3.445.273-7.23 2.064-10.287a17 17 0 0 1 5.946-6.002c.951-.566 1.14-.66 1.743-.925.179-.075.528-.217.763-.32"/></svg>
